X: 392
T: Eileen Aroon
M:3/4
L:1/8
B:O'Neill's 392
N:"Slow."
N:1st Setting
N:"collected by Mrs. Lavin"
Z:Transcribed by Chris Falt, cfalt@trytel.com
K:D
(dB)|(A2B2)(dB)|(d2e2f2)|(F2A2ed)|B4(dB)|
(A2B2)(dB)|(d2e2f2)|(F2A2Bd)|d4||
(df)|.g.gf2(fe)|.f.aa2(fe)|.d.de2(dB)|A4f2|
a2(fedB)|(de)f4|(F2A2)(Bd)|d4||


